collections/iconoir/cpu.svg

<svg stroke-width="1.5" fill="none" xmlns="http://www.w3.org/2000/svg" viewBox="0 0 24 24" width="20" height="20"><path d="M8 15.4V8.6a.6.6 0 01.6-.6h6.8a.6.6 0 01.6.6v6.8a.6.6 0 01-.6.6H8.6a.6.6 0 01-.6-.6z" stroke="currentColor" stroke-linecap="round" stroke-linejoin="round"/><path d="M20 4.6v14.8a.6.6 0 01-.6.6H4.6a.6.6 0 01-.6-.6V4.6a.6.6 0 01.6-.6h14.8a.6.6 0 01.6.6zM17 4V2m-5 2V2M7 4V2m0 18v2m5-2v2m5-2v2m3-5h2m-2-5h2m-2-5h2M4 17H2m2-5H2m2-5H2" stroke="currentColor" stroke-linecap="round" stroke-linejoin="round"/></svg>

<svg stroke-width="1.5" fill="none" xmlns="http://www.w3.org/2000/svg" viewBox="0 0 24 24" width="20" height="20"><path d="M8 15.4V8.6a.6.6 0 01.6-.6h6.8a.6.6 0 01.6.6v6.8a.6.6 0 01-.6.6H8.6a.6.6 0 01-.6-.6z" stroke="currentColor" stroke-linecap="round" stroke-linejoin="round"/><path d="M20 4.6v14.8a.6.6 0 01-.6.6H4.6a.6.6 0 01-.6-.6V4.6a.6.6 0 01.6-.6h14.8a.6.6 0 01.6.6zM17 4V2M12 4V2M7 4V2M7 20v2M12 20v2M17 20v2M20 17h2M20 12h2M20 7h2M4 17H2M4 12H2M4 7H2" stroke="currentColor" stroke-linecap="round" stroke-linejoin="round"/></svg>
